X:2
T:Rid\'ee
R:rid\'ee
O:Bretagne
D:Kornog: IV
D:L\'unasa
Z:id:hn-ridee-2
M:6/4
L:1/8
Q:1/4=200
K:Am
AGAB c2 Bc dcAE | AGAB c2 Bc dcA2 :|
|: e2 Ae eA cABd (3cBA | e2 Ae eA cABc A2 :|
P:variations
|: AEAB c2 Bc dcAG | AEAB c2 Bc dcA2 :|
|: e2 Ae-eA cABd cA |1 e2 Ae-eA cABc AA :|2 e2 Ae-eA cABc AE ||

